src/shared/assets/icons/ic-logout.svg

<svg width="24" height="24" viewBox="0 0 24 24" fill="none" xmlns="http://www.w3.org/2000/svg">
<path d="M1.9997 17.3778L1.9997 6.755C1.9997 5.6421 2.714 4.5292 3.8364 4.1246L8.9385 2.2023C9.2446 2.1012 9.5507 2 9.9589 2C10.4691 2 11.0813 2.2023 11.5915 2.5058C11.7956 2.7082 12.1017 2.9105 12.2038 3.1129L16.0813 3.1129C17.6119 3.1129 18.9385 4.3269 18.9385 5.9456L18.9385 6.9573C18.9385 7.362 18.6323 7.7667 18.1221 7.7667C17.6119 7.7667 17.3058 7.4632 17.3058 6.9573L17.3058 5.9456C17.3058 5.2374 16.6936 4.7316 16.0813 4.7316L12.714 4.7316L12.714 19.3L16.0813 19.3C16.7956 19.3 17.3058 18.7942 17.3058 18.086L17.3058 17.0743C17.3058 16.6696 17.6119 16.2649 18.1221 16.2649C18.6323 16.2649 18.9385 16.6696 18.9385 17.0743L18.9385 18.086C18.9385 19.6035 17.714 20.9187 16.0813 20.9187L12.2038 20.9187C11.9997 21.1211 11.7956 21.3234 11.5915 21.5258C10.7752 22.0316 9.8568 22.1328 8.9385 21.8293L3.8364 19.907C2.816 19.6035 1.9997 18.4907 1.9997 17.3778Z" fill="#707177"/>
<path d="M19.1429 9.18297C19.3469 9.18297 19.551 9.28407 19.6531 9.38527L21.6939 11.4087C21.7959 11.5099 21.7959 11.611 21.898 11.611C21.898 11.7122 22 11.8134 22 11.9145C22 12.0157 22 12.1169 21.898 12.218C21.898 12.3192 21.7959 12.4204 21.6939 12.4204L19.6531 14.4438C19.3469 14.7473 18.8367 14.7473 18.5306 14.4438C18.2245 14.1402 18.2245 13.6344 18.5306 13.3309L19.2449 12.6227L15.0612 12.6227C14.6531 12.6227 14.2449 12.3192 14.2449 11.8134C14.2449 11.3075 14.6531 11.2063 15.0612 11.2063L19.3469 11.2063L18.6327 10.4982C18.3265 10.1947 18.3265 9.68877 18.6327 9.38527C18.7347 9.28407 18.9388 9.18297 19.1429 9.18297Z" fill="#707177"/>
</svg>

<svg xmlns="http://www.w3.org/2000/svg" fill="none" viewBox="0 0 24 24"><path fill="#707177" d="M2 17.378V6.755c0-1.113.714-2.226 1.836-2.63L8.94 2.202c.306-.1.612-.202 1.02-.202.51 0 1.122.202 1.633.506.204.202.51.405.612.607h3.877c1.53 0 2.858 1.214 2.858 2.833v1.011c0 .405-.307.81-.817.81s-.816-.304-.816-.81V5.946c0-.709-.612-1.214-1.225-1.214h-3.367V19.3h3.367c.715 0 1.225-.506 1.225-1.214v-1.012c0-.404.306-.81.816-.81s.817.406.817.81v1.012a2.84 2.84 0 0 1-2.858 2.833h-3.877l-.613.607c-.816.506-1.734.607-2.652.303l-5.103-1.922C2.816 19.604 2 18.491 2 17.377"/><path fill="#707177" d="M19.143 9.183c.204 0 .408.101.51.202l2.04 2.024c.103.1.103.202.205.202 0 .101.102.202.102.303 0 .102 0 .203-.102.304 0 .101-.102.202-.204.202l-2.04 2.024a.806.806 0 0 1-1.123 0 .79.79 0 0 1 0-1.113l.714-.708H15.06c-.408 0-.816-.304-.816-.81s.408-.607.816-.607h4.286l-.714-.708a.79.79 0 0 1 0-1.113.78.78 0 0 1 .51-.202"/></svg>
